Papirus-Dark/24x24/actions/transform-move-horizontal.svg

<?xml version="1.0" encoding="UTF-8" standalone="no"?>
<svg xmlns:osb="http://www.openswatchbook.org/uri/2009/osb" xmlns:dc="http://purl.org/dc/elements/1.1/" xmlns:cc="http://creativecommons.org/ns#" xmlns:rdf="http://www.w3.org/1999/02/22-rdf-syntax-ns#" xmlns:svg="http://www.w3.org/2000/svg" xmlns="http://www.w3.org/2000/svg" width="24" height="24" viewBox="0 0 24 24" id="svg6394" version="1.1">
    <defs id="defs6396">
        <linearGradient id="linearGradient19282" osb:paint="solid" gradientTransform="matrix(-0.40801424,2.7359005,1.4465395,0.18903615,2588.4859,828.26016)">
            <stop style="stop-color:#ffffff;stop-opacity:1;" offset="0" id="stop19284"/>
        </linearGradient>
        <linearGradient id="linearGradient19282-3" osb:paint="solid" gradientTransform="matrix(-2.7359006,0.40801425,-0.18903616,-1.4465395,-804.26018,-2564.486)">
            <stop style="stop-color:#ffffff;stop-opacity:1;" offset="0" id="stop19284-6"/>
        </linearGradient>
        <linearGradient gradientTransform="matrix(-2.73658,0.4081035,-0.1890831,-1.446856,-1254.4599,-3933.7766)" osb:paint="solid" id="linearGradient19282-36">
            <stop id="stop19284-7" offset="0" style="stop-color:#666666;stop-opacity:1;"/>
        </linearGradient>
    </defs>
    <metadata id="metadata6399">
        <rdf:RDF>
            <cc:Work rdf:about="">
                <dc:format>
                    image/svg+xml
                </dc:format>
                <dc:type rdf:resource="http://purl.org/dc/dcmitype/StillImage"/>
                <dc:title/>
            </cc:Work>
        </rdf:RDF>
    </metadata>
    <path id="path4861" d="M 0.54882812 2.0078125 A 0.50005 0.50005 0 0 0 0.048828125 2.5078125 L 0.048828125 10.5 A 0.50005 0.50005 0 0 0 0.54882812 11 L 9.5234375 11 A 0.50005 0.50005 0 0 0 10.023438 10.5 L 10.023438 2.5078125 A 0.50005 0.50005 0 0 0 9.5234375 2.0078125 L 0.54882812 2.0078125 z M 1.5390625 3.0039062 L 8.5371094 3.0039062 C 8.8132094 3.0039364 9.0371094 3.2277762 9.0371094 3.5039062 L 9.0371094 9.4980469 C 9.0371094 9.7741769 8.8132094 9.9980169 8.5371094 9.9980469 L 1.5390625 9.9980469 C 1.2629625 9.9980169 1.0390625 9.7741769 1.0390625 9.4980469 L 1.0390625 3.5039062 C 1.0390625 3.2277762 1.2629625 3.0039364 1.5390625 3.0039062 z " style="fill:#ffffff;fill-rule:evenodd;fill-opacity:1;opacity:0.72"/>
    <path id="path4859" d="M 14.523438 2.0078125 A 0.50005 0.50005 0 0 0 14.023438 2.5078125 L 14.023438 10.5 A 0.50005 0.50005 0 0 0 14.523438 11 L 23.5 11 A 0.50005 0.50005 0 0 0 24 10.5 L 24 2.5078125 A 0.50005 0.50005 0 0 0 23.5 2.0078125 L 14.523438 2.0078125 z M 15.515625 3.0039062 L 22.513672 3.0039062 C 22.789803 3.0039337 23.013645 3.2277753 23.013672 3.5039062 L 23.013672 9.4980469 C 23.013645 9.7741779 22.789803 9.9980195 22.513672 9.9980469 L 15.515625 9.9980469 C 15.239494 9.9980195 15.015652 9.7741779 15.015625 9.4980469 L 15.015625 3.5039062 C 15.015652 3.2277753 15.239494 3.0039337 15.515625 3.0039062 z " style="fill:#ffffff;fill-rule:evenodd;fill-opacity:1;opacity:0.72"/>
    <path id="path4857" d="m 1.0488281,3.0078125 7.9746094,0 0,6.9921875 -7.9746094,0 0,-6.9921875 z" style="fill:#ffffff;fill-rule:evenodd;fill-opacity:1;opacity:0.3"/>
    <path id="path4855" d="M 15.023438,3.0078125 23,3.0078125 23,10 l -7.976562,0 0,-6.9921875 z" style="fill:#ffffff;fill-rule:evenodd;fill-opacity:1;opacity:0.3"/>
    <path id="path5435" d="m 17.023438,12 0,2 -12.0000005,0 0,1 12.0000005,0 0,2 3,-2.5 -3,-2.5 z" style="fill:#ffffff;fill-rule:evenodd;fill-opacity:1;opacity:0.72"/>
</svg>

<?xml version="1.0" encoding="UTF-8" standalone="no"?>
<svg id="svg6394" xmlns:rdf="http://www.w3.org/1999/02/22-rdf-syntax-ns#" xmlns="http://www.w3.org/2000/svg" xmlns:osb="http://www.openswatchbook.org/uri/2009/osb" height="24" width="24" version="1.1" xmlns:cc="http://creativecommons.org/ns#" viewBox="0 0 24 24" xmlns:dc="http://purl.org/dc/elements/1.1/">
 <metadata id="metadata6399">
  <rdf:RDF>
   <cc:Work rdf:about="">
    <dc:format>image/svg+xml</dc:format>
    <dc:type rdf:resource="http://purl.org/dc/dcmitype/StillImage"/>
    <dc:title/>
   </cc:Work>
  </rdf:RDF>
 </metadata>
 <path id="path4861" opacity="1" fill="#d3dae3" d="m0.54883 2.0078a0.50005 0.50005 0 0 0 -0.5 0.5l-0.000002 7.9922a0.50005 0.50005 0 0 0 0.5 0.5h8.9746a0.50005 0.50005 0 0 0 0.4996 -0.5v-7.9922a0.50005 0.50005 0 0 0 -0.4996 -0.5h-8.9746zm0.99027 0.9961h6.998c0.2761 0 0.5 0.2239 0.5 0.5v5.9941c0 0.2762-0.2239 0.5-0.5 0.5h-6.998c-0.2761 0-0.5-0.2238-0.5-0.5v-5.9941c0-0.2761 0.2239-0.5 0.5-0.5z" fill-rule="evenodd"/>
 <path id="path4859" opacity="1" fill="#d3dae3" d="m14.523 2.0078a0.50005 0.50005 0 0 0 -0.5 0.5v7.9922a0.50005 0.50005 0 0 0 0.5 0.5h8.977a0.50005 0.50005 0 0 0 0.5 -0.5v-7.9922a0.50005 0.50005 0 0 0 -0.5 -0.5h-8.977zm0.993 0.9961h6.998c0.276 0 0.5 0.2239 0.5 0.5v5.9941c0 0.2762-0.224 0.5-0.5 0.5h-6.998c-0.277 0-0.5-0.2238-0.5-0.5v-5.9941c0-0.2761 0.223-0.5 0.5-0.5z" fill-rule="evenodd"/>
 <path id="path4857" opacity="0.3" fill="#d3dae3" d="m1.0488 3.0078h7.9746v6.9922h-7.9746v-6.9922z" fill-rule="evenodd"/>
 <path id="path4855" opacity="0.3" fill="#d3dae3" d="m15.023 3.0078h7.977v6.9922h-7.9766v-6.9922z" fill-rule="evenodd"/>
 <path id="path5435" opacity="1" fill="#d3dae3" d="m17.023 12v2h-12v1h12v2l3-2.5-3-2.5z" fill-rule="evenodd"/>
</svg>
